!!!!SEGMENT: pl-cz--iii-684--003_volckmer-augustin--salve-regina-o-clemens-o-pia.krn
!!!cenid: 17xx:1219
!!!COM: Volckmer, Augustin
!!!COM-rismID: pe30020656
!!!CDT: 1755-~1820
!!!CNT:
!!!OPR: Salve Regina
!!!OTL: O clemens o pia
!!!OMV: 003
!!!PDT:
!!!AGN: Sacred
!!!SMS-siglum: PL-CZ
!!!SMS-shelfmark: III-684
!!!SMS-shelfwork: 001-003 M
!!!SMS-variant:
!!!SMS-altvar:
!!!NIFC-rismSourceID: 300001402
!!!NIFC-rismChildID: 300001402
!!!NIFC-islandoraID: pl-cz:40208
!!!URL-pdf-islandora: https://repozytorium.nifc.pl/islandora/object/pl-cz%3A40208/datastream/PDF/view
!!!URL-scan:
!!!ONB-nifc: UWAGA: części Salve Regina: Salve Regina, Et Jesum benedictum, O clemens o pia
!!!AIN: 1 alto 1 bass 1 clrno 1 clro 2 oboe 1 organ 1 soprn 1 tenor 1 timpa 1 viola 2 violn
!!!key: D
**kern	**kern	**kern	**kern	**kern	**text	**kern	**text	**kern	**text	**kern	**text	**kern	**kern	**kern	**kern	**kern
*	*group4	*group4	*group4	*group3	*	*group3	*	*group3	*	*group3	*	*	*group2	*group2	*group1	*group1
*part13	*part12	*part11	*part10	*part9	*part9	*part8	*part8	*part7	*part7	*part6	*part6	*part5	*part4	*part3	*part2	*part1
*staff13	*staff12	*staff11	*staff10	*staff9	*staff9	*staff8	*staff8	*staff7	*staff7	*staff6	*staff6	*staff5	*staff4	*staff3	*staff2	*staff1
*I"Organo.	*I"Viola Obligata.	*I"Violino Secondo.	*I"Violino Primo	*I"Baſso.	*	*I"Tenore.	*	*I"Alto.	*	*I"Canto.	*	*I"Tympanis	*I"Clarino Secondo	*I"Clarino Primo	*I"Oboe Secondo	*I"Oboe Primo
*I'org	*I'vla	*I'vl 2	*I'vl 1	*I'B	*	*I'T	*	*I'A	*	*I'S	*	*I'timp	*I'clno 2	*I'clno 1	*I'ob 2	*I'ob 1
*Iorgan	*Iviola	*Ivioln	*Ivioln	*Ibass	*	*Itenor	*	*Ialto	*	*Isoprn	*	*Itimpa	*Iclro	*Iclrno	*Ioboe	*Ioboe
*ICklav	*ICstr	*ICstr	*ICstr	*ICvox	*	*ICvox	*	*ICvox	*	*ICvox	*	*ICidio	*ICbras	*ICbras	*ICww	*ICww
*clefF4	*clefC3	*clefG2	*clefG2	*clefF4	*	*clefC4	*	*clefC3	*	*clefC1	*	*clefF4	*clefG2	*clefG2	*clefG2	*clefG2
*	*	*	*	*	*	*	*	*	*	*	*	*	*ITrd-1c-2	*ITrd-1c-2	*	*
*k[f#c#]	*k[f#c#]	*k[f#c#]	*k[f#c#]	*k[f#c#]	*	*k[c#f#]	*	*k[f#c#]	*	*k[c#f#]	*	*k[]	*k[f#c#]	*k[f#c#]	*k[f#c#]	*k[f#c#]
*D:	*D:	*D:	*D:	*D:	*	*D:	*	*D:	*	*D:	*	*	*	*	*D:	*D:
*M4/4	*M4/4	*M4/4	*M4/4	*M4/4	*	*M4/4	*	*M4/4	*	*M4/4	*	*M4/4	*M4/4	*M4/4	*M4/4	*M4/4
*met(c)	*met(c)	*met(c)	*met(c)	*met(c)	*	*met(c)	*	*met(c)	*	*met(c)	*	*met(c)	*met(c)	*met(c)	*met(c)	*met(c)
=1	=1	=1	=1	=1	=1	=1	=1	=1	=1	=1	=1	=1	=1	=1	=1	=1
*	*	*	*	*2\right	*	*	*	*2\right	*	*	*	*	*	*	*	*
!LO:TX:t=P:problem:brak partii w źródle - zgodnie z RISM "other parts missing"	!LO:TX:t=P:problem:brak partii w źródle - zgodnie z RISM "other parts missing"	!LO:TX:t=P:problem:brak partii w źródle - zgodnie z RISM "other parts missing"	!LO:TX:t=P:problem:brak partii w źródle - zgodnie z RISM "other parts missing"	!	!	!LO:TX:a:t=Allegro.	!	!LO:TX:a:t=Allegro.	!	!LO:TX:t=P:problem:kolejnośc znaków cc# f#	!	!LO:TX:t=P:problem:brak partii w źródle - zgodnie z RISM "other parts missing"	!LO:TX:t=P:problem:brak partii w źródle - zgodnie z RISM "other parts missing"	!LO:TX:t=P:problem:brak partii w źródle - zgodnie z RISM "other parts missing"	!LO:TX:t=P:problem:brak partii w źródle - zgodnie z RISM "other parts missing"	!LO:TX:t=P:problem:brak partii w źródle - zgodnie z RISM "other parts missing"
1ryy	1ryy	1ryy	1ryy	2D\	O-	2D/	O	2d\	O-	2d/	O	1ryy	1ryy	1ryy	1ryy	1ryy
.	.	.	.	4D\	.	4D/	.	4d\	.	4d/	.	.	.	.	.	.
.	.	.	.	4D\	.	4D/	.	4d\	.	4d/	.	.	.	.	.	.
=2	=2	=2	=2	=2	=2	=2	=2	=2	=2	=2	=2	=2	=2	=2	=2	=2
1ryy	1ryy	1ryy	1ryy	2D\	-cle-	2E/	cle-	2d\	-cle-	2e/	cle-	1ryy	1ryy	1ryy	1ryy	1ryy
.	.	.	.	2C#/	-mens	2E/	-mens	2c#\	-mens	2e/	-mens	.	.	.	.	.
=3	=3	=3	=3	=3	=3	=3	=3	=3	=3	=3	=3	=3	=3	=3	=3	=3
1ryy	1ryy	1ryy	1ryy	4D\	.	4F#/	o	4d\	o	4f#/	O	1ryy	1ryy	1ryy	1ryy	1ryy
.	.	.	.	4F#\	.	4d\	.	4f#\	.	4dd\	.	.	.	.	.	.
.	.	.	.	4G\	.	4d\	pi-	2g\	pi-	4b\	pi-	.	.	.	.	.
.	.	.	.	4A\	pi-	4e\	.	.	.	4cc#\	.	.	.	.	.	.
=4	=4	=4	=4	=4	=4	=4	=4	=4	=4	=4	=4	=4	=4	=4	=4	=4
1ryy	1ryy	1ryy	1ryy	4D\	-a.	4d\	-a	4f#\	-a	4dd\	-a	1ryy	1ryy	1ryy	1ryy	1ryy
.	.	.	.	4r	.	4r	.	4r	.	4r	.	.	.	.	.	.
.	.	.	.	8r	.	8r	.	8r	.	8r	.	.	.	.	.	.
.	.	.	.	16F#\	o	16A\	o	16f#\	o	16dd\	o	.	.	.	.	.
.	.	.	.	16r	.	16r	.	16r	.	16r	.	.	.	.	.	.
.	.	.	.	16G\	dul-	16B\	dul-	16g\	dul-	16ee\	dul-	.	.	.	.	.
.	.	.	.	16r	.	16r	.	16r	.	16r	.	.	.	.	.	.
.	.	.	.	16A\	-cis	16A\	-cis	16e\	-cis	16cc#\	-cis	.	.	.	.	.
.	.	.	.	16r	.	16r	.	16r	.	16r	.	.	.	.	.	.
=5	=5	=5	=5	=5	=5	=5	=5	=5	=5	=5	=5	=5	=5	=5	=5	=5
1ryy	1ryy	1ryy	1ryy	8D\	vir-	8A/L	vir-	8f#\	vir-	(8dd\	vir-	1ryy	1ryy	1ryy	1ryy	1ryy
.	.	.	.	8A\	.	8B/	.	8a\	.	8ff#\)	.	.	.	.	.	.
.	.	.	.	8A\	.	8A/	.	8b\	.	(8gg\	.	.	.	.	.	.
.	.	.	.	8G\	.	8G/J	.	8b\	.	8ee\)	.	.	.	.	.	.
.	.	.	.	(8G\	-go	8G/L	-go	4a\	-go	(8ff#\L	-go	.	.	.	.	.
.	.	.	.	8F#\)	.	8F#/	.	.	.	8dd\J)	.	.	.	.	.	.
.	.	.	.	(8F#\	Ma-	8F#/	Ma-	4g\	Ma-	(8ee\L	ma-	.	.	.	.	.
.	.	.	.	8E\)	.	8E/J	.	.	.	8cc#\J)	.	.	.	.	.	.
!	!	!	!	!LO:LB:g=original	!	!LO:LB:g=original	!	!LO:LB:g=original	!	!LO:LB:g=original	!	!	!	!	!	!
=6	=6	=6	=6	=6	=6	=6	=6	=6	=6	=6	=6	=6	=6	=6	=6	=6
*	*	*	*	*	*	*	*	*	*	*2\right	*	*	*	*	*	*
1ryy	1ryy	1ryy	1ryy	8D\	-ri-	8D/	-ri-	8f#\	-ri-	2dd\	-ri-	1ryy	1ryy	1ryy	1ryy	1ryy
.	.	.	.	4.E\	.	4.B\	.	4.g#X\	.	.	.	.	.	.	.	.
.	.	.	.	4F#\	-a.	4c#\	-a	4a\	-a	4cc#\	-a	.	.	.	.	.
.	.	.	.	8r	.	8r	.	8r	.	8r	.	.	.	.	.	.
!	!	!	!	!	!	!LO:TX:t=X:problem:na kresce taktowej	!	!	!	!	!	!	!	!	!	!
.	.	.	.	8G#X\	o-	8e\	o	8g#X\	o	8b\	o	.	.	.	.	.
=7	=7	=7	=7	=7	=7	=7	=7	=7	=7	=7	=7	=7	=7	=7	=7	=7
!	!	!	!	!	!	!LO:TX:t=P:problem:brak taktu	!	!	!	!	!	!	!	!	!	!
1ryy	1ryy	1ryy	1ryy	4A\	.	1ryy	.	4a\	.	4cc#\	.	1ryy	1ryy	1ryy	1ryy	1ryy
.	.	.	.	8r	.	.	.	8r	.	8r	.	.	.	.	.	.
.	.	.	.	8G#X\	-cle-	.	.	8g#X\	cle-	8b\	cle-	.	.	.	.	.
.	.	.	.	4A\	-mens	.	.	4a\	-mens	4cc#\	-mens	.	.	.	.	.
.	.	.	.	8r	.	.	.	8r	.	8r	.	.	.	.	.	.
.	.	.	.	8Gn\	o	.	.	8gn\	o	8cc#\	o	.	.	.	.	.
=8	=8	=8	=8	=8	=8	=8	=8	=8	=8	=8	=8	=8	=8	=8	=8	=8
1ryy	1ryy	1ryy	1ryy	8F#\L	.	4f#\	.	4a\	.	4dd\	pi-	1ryy	1ryy	1ryy	1ryy	1ryy
.	.	.	.	8D\	.	.	.	.	.	.	.	.	.	.	.	.
.	.	.	.	8C#\	.	8c#\L	.	8a\	.	8ee\	.	.	.	.	.	.
!	!	!	!	!LO:SIC:v:s=8AA\J	!	!	!	!	!	!	!	!	!	!	!	!
.	.	.	.	8BB\J	.	8c#\J	.	8a\	.	8ee\	.	.	.	.	.	.
.	.	.	.	8D\L	.	4d\	pi-	4a\	pi-	4ff#\	.	.	.	.	.	.
.	.	.	.	8F#\	.	.	.	.	.	.	.	.	.	.	.	.
.	.	.	.	8A\	.	4c#\	-a	4a\	-a	4ee\	-a	.	.	.	.	.
.	.	.	.	8G\J	.	.	.	.	.	.	.	.	.	.	.	.
=9	=9	=9	=9	=9	=9	=9	=9	=9	=9	=9	=9	=9	=9	=9	=9	=9
1ryy	1ryy	1ryy	1ryy	8F#\L	.	4f#\	o	4a\	o	4dd\	o	1ryy	1ryy	1ryy	1ryy	1ryy
.	.	.	.	8D\	.	.	.	.	.	.	.	.	.	.	.	.
.	.	.	.	8C#\	.	4c#\	dul-	4a\	dul-	4ee\	dul-	.	.	.	.	.
.	.	.	.	8AA\J	.	.	.	.	.	.	.	.	.	.	.	.
.	.	.	.	8D\L	.	4d\	.	4a\	.	8ff#\	.	.	.	.	.	.
.	.	.	.	8F#\	.	.	.	.	.	8ff#\	.	.	.	.	.	.
.	.	.	.	8A\	.	8c#\L	.	8a\	.	4ee\	-cis	.	.	.	.	.
.	.	.	.	8A\J	.	8e\J	-cis	8a\	-cis	.	.	.	.	.	.	.
=10	=10	=10	=10	=10	=10	=10	=10	=10	=10	=10	=10	=10	=10	=10	=10	=10
1ryy	1ryy	1ryy	1ryy	4G#X\	.	4e\	.	(8b\L	vir-	8dd\L	vir-	1ryy	1ryy	1ryy	1ryy	1ryy
.	.	.	.	.	.	.	.	8g#X\J)	.	8b\J	.	.	.	.	.	.
.	.	.	.	8A\	.	8e\L	vir-	(8a\	-go	8cc#\L	-go	.	.	.	.	.
.	.	.	.	8A\	.	8c#\J	-go	8e\)	.	8a\J	.	.	.	.	.	.
.	.	.	.	4B\	.	8d\L	.	4e\	ma-	8b\L	ma-	.	.	.	.	.
.	.	.	.	.	.	8B\	Ma-	.	.	8g#X\J	.	.	.	.	.	.
.	.	.	.	8c#\L	.	8c#\	.	8e\L	.	8a\L	.	.	.	.	.	.
.	.	.	.	8A\J	.	8e\J	.	8a\J	.	8cc#\J	.	.	.	.	.	.
!	!	!	!	!LO:LB:g=original	!	!	!	!LO:LB:g=original	!	!LO:LB:g=original	!	!	!	!	!	!
=11	=11	=11	=11	=11	=11	=11	=11	=11	=11	=11	=11	=11	=11	=11	=11	=11
1ryy	1ryy	1ryy	1ryy	4G#X\	pi-	4e\	.	8b\L	.	8dd\L	.	1ryy	1ryy	1ryy	1ryy	1ryy
.	.	.	.	.	.	.	.	8g#X\J	.	8b\J	.	.	.	.	.	.
.	.	.	.	4A\	.	8e\L	.	8a\L	.	8cc#\L	.	.	.	.	.	.
.	.	.	.	.	.	8c#\J	.	8e\J	.	8a\J	.	.	.	.	.	.
.	.	.	.	4B\	.	8d\L	-ri-	4e\	-ri-	8b\L	.	.	.	.	.	.
.	.	.	.	.	.	8B\J	.	.	.	8g#X\J	-ri-	.	.	.	.	.
.	.	.	.	8c#\	-a	8c#\	-a.	8e\	-a	8a\	-a	.	.	.	.	.
.	.	.	.	8r	.	8r	.	8r	.	8r	.	.	.	.	.	.
!	!	!	!	!	!	!LO:LB:g=original	!	!	!	!	!	!	!	!	!	!
=12	=12	=12	=12	=12	=12	=12	=12	=12	=12	=12	=12	=12	=12	=12	=12	=12
1ryy	1ryy	1ryy	1ryy	8r	.	8r	.	8r	.	8r	.	1ryy	1ryy	1ryy	1ryy	1ryy
.	.	.	.	8E\	o	8e\	o	8g#X\	o	8b\	o	.	.	.	.	.
!	!	!	!	!	!	!LO:SIC:v:s=8e\	!	!	!	!	!	!	!	!	!	!
.	.	.	.	8A\	.	8d\	.	8a\	.	8cc#\	.	.	.	.	.	.
.	.	.	.	8r	.	8r	.	8r	.	8r	.	.	.	.	.	.
.	.	.	.	8r	.	8r	.	8r	.	8r	.	.	.	.	.	.
.	.	.	.	8E\	dul-	8e\L	cle-	8g#\	.	8b\	.	.	.	.	.	.
.	.	.	.	8A\	.	8e\	.	8a\	cle-	8cc#\	cle-	.	.	.	.	.
.	.	.	.	8AA/	-cis	8e\J	-mens	8a\	-mens	8cc#\	-mens	.	.	.	.	.
=13	=13	=13	=13	=13	=13	=13	=13	=13	=13	=13	=13	=13	=13	=13	=13	=13
1ryy	1ryy	1ryy	1ryy	8D\L	vir-	8d\L	o	4a\	o	8ff#\L	o	1ryy	1ryy	1ryy	1ryy	1ryy
.	.	.	.	8C#\J	.	8c#\J	.	.	.	8ee\	.	.	.	.	.	.
.	.	.	.	8F#\L	.	8f#\L	.	8a\	.	8dd\	.	.	.	.	.	.
.	.	.	.	8E\J	.	8e\J	.	8a\	.	8cc#\J	.	.	.	.	.	.
.	.	.	.	8F#\	.	8f#\L	.	8a\L	.	8dd\L	.	.	.	.	.	.
.	.	.	.	8C#/	.	8c#\J	.	8a\J	.	8ee\	.	.	.	.	.	.
.	.	.	.	8D\L	.	8d\L	.	4a\	.	8ff#\	.	.	.	.	.	.
.	.	.	.	8C#\J	.	8c#\J	.	.	.	8ee\J	.	.	.	.	.	.
=14	=14	=14	=14	=14	=14	=14	=14	=14	=14	=14	=14	=14	=14	=14	=14	=14
1ryy	1ryy	1ryy	1ryy	8D\L	.	8d\L	.	4a\	.	8ff#\L	.	1ryy	1ryy	1ryy	1ryy	1ryy
.	.	.	.	8C#\J	.	8c#\J	.	.	.	8ee\	.	.	.	.	.	.
.	.	.	.	8F#\L	.	8f#\L	.	8a\	.	8dd\	.	.	.	.	.	.
.	.	.	.	8E\J	.	8c#\J	.	8a\	.	8cc#\J	.	.	.	.	.	.
!	!	!	!	!	!	!	!	!	!	!LO:LB:g=original	!	!	!	!	!	!
.	.	.	.	8F#\L	-go	8f#\L	.	2a\	.	8dd\L	.	.	.	.	.	.
.	.	.	.	8C#\	.	8c#\	.	.	.	8ee\	.	.	.	.	.	.
.	.	.	.	8D\	.	8d\	.	.	.	8ff#\	.	.	.	.	.	.
.	.	.	.	8F#\J	.	8f#\J	.	.	.	8dd\J	.	.	.	.	.	.
=15	=15	=15	=15	=15	=15	=15	=15	=15	=15	=15	=15	=15	=15	=15	=15	=15
*	*	*	*	*	*	*2\right	*	*	*	*	*	*	*	*	*	*
1ryy	1ryy	1ryy	1ryy	2E\	Ma-	2e\	pi-	2a\	pi-	2cc#\	pi-	1ryy	1ryy	1ryy	1ryy	1ryy
.	.	.	.	2E\	-ri-	2e\	.	2g#X\	.	2b\	.	.	.	.	.	.
!	!	!	!	!LO:LB:g=original	!	!	!	!LO:LB:g=original	!	!	!	!	!	!	!	!
=16	=16	=16	=16	=16	=16	=16	=16	=16	=16	=16	=16	=16	=16	=16	=16	=16
1ryy	1ryy	1ryy	1ryy	4AA/	-a.	4e\	-a	4a\	-a	4a\	-a	1ryy	1ryy	1ryy	1ryy	1ryy
.	.	.	.	8r	.	8r	.	8r	.	8r	.	.	.	.	.	.
.	.	.	.	8D/	o	8d\	o	8a\	o	8ff#\	o	.	.	.	.	.
.	.	.	.	8AA/	dul-	8c#\L	dul-	8a\	dul-	8ee\	dul-	.	.	.	.	.
!	!	!	!	!	!	!	!	!LO:SIC:v:l:s=-cis	!	!	!	!	!	!	!	!
.	.	.	.	8AA/	-cis	8c#\J	-cis	8a\	-ci	8ee\	-cis	.	.	.	.	.
!	!	!	!	!	!	!LO:LB:g=original	!	!	!	!	!	!	!	!	!	!
.	.	.	.	8r	.	8r	.	8r	.	8r	.	.	.	.	.	.
.	.	.	.	16E\	.	16e\LL	.	16b\	.	16dd\	vir-	.	.	.	.	.
.	.	.	.	16E\	vir-	16e\JJ	vir-	16b\	vir-	16dd\	.	.	.	.	.	.
=17	=17	=17	=17	=17	=17	=17	=17	=17	=17	=17	=17	=17	=17	=17	=17	=17
1ryy	1ryy	1ryy	1ryy	4A\	-go	4e\	-go	4a\	-go	4cc#\	-go	1ryy	1ryy	1ryy	1ryy	1ryy
.	.	.	.	8r	.	8r	.	8r	.	8r	.	.	.	.	.	.
*	*	*	*	*	*ij	*	*ij	*	*ij	*	*	*	*	*	*	*
.	.	.	.	8D/	vir-	8d\	vir-	8a\	vir-	8ff#\	vir-	.	.	.	.	.
.	.	.	.	4AA/	-go	4c#\	-go	4a\	-go	4ee\	-go	.	.	.	.	.
*	*	*	*	*	*Xij	*	*Xij	*	*Xij	*	*	*	*	*	*	*
.	.	.	.	8r	.	8r	.	8r	.	8r	.	.	.	.	.	.
.	.	.	.	8E\	ma-	8e\	Ma-	8b\	ma-	8dd\	ma-	.	.	.	.	.
=18	=18	=18	=18	=18	=18	=18	=18	=18	=18	=18	=18	=18	=18	=18	=18	=18
1ryy	1ryy	1ryy	1ryy	8A\L	.	4e\	.	8a\L	.	4cc#\	.	1ryy	1ryy	1ryy	1ryy	1ryy
.	.	.	.	8G\	.	.	.	8g\J	.	.	.	.	.	.	.	.
.	.	.	.	8F#\	.	4A\	.	4f#\	.	4dd\	.	.	.	.	.	.
.	.	.	.	8D\J	.	.	.	.	.	.	.	.	.	.	.	.
!	!	!	!	!	!	!	!	!	!	!LO:LB:g=original	!	!	!	!	!	!
.	.	.	.	8C#/L	.	8c#\L	.	8a\	.	8ee\L	.	.	.	.	.	.
.	.	.	.	8AA/	.	8c#\J	.	8a\	.	8ee\J	.	.	.	.	.	.
.	.	.	.	8D/	.	8d\L	.	8a\L	.	8ff#\L	.	.	.	.	.	.
.	.	.	.	8F#/J	.	8d\J	.	8a\J	.	8ff#\J	.	.	.	.	.	.
=19	=19	=19	=19	=19	=19	=19	=19	=19	=19	=19	=19	=19	=19	=19	=19	=19
1ryy	1ryy	1ryy	1ryy	4C#/	.	4A/	.	8a\L	.	8ff#\L	.	1ryy	1ryy	1ryy	1ryy	1ryy
.	.	.	.	.	.	.	.	8g\J	.	8ee\	.	.	.	.	.	.
.	.	.	.	8D\	.	8A/L	.	(8f#\L	-ri-	8dd\	.	.	.	.	.	.
.	.	.	.	8F#\	-ri-	8A/J	-ri-	8g\J)	.	8ee\J	-ri-	.	.	.	.	.
.	.	.	.	8A\	-a	8A/	-a	8e\	-a	8cc#\	-a	.	.	.	.	.
.	.	.	.	8r	.	8r	.	8r	.	8r	.	.	.	.	.	.
.	.	.	.	8D\	vir-	8A/	vir-	8f#\	vir-	8dd\	vir-	.	.	.	.	.
.	.	.	.	8r	.	8r	.	8r	.	8r	.	.	.	.	.	.
!	!	!	!	!	!	!	!	!LO:LB:g=original	!	!	!	!	!	!	!	!
=20	=20	=20	=20	=20	=20	=20	=20	=20	=20	=20	=20	=20	=20	=20	=20	=20
1ryy	1ryy	1ryy	1ryy	4AA/	-go	4A\	-go	4e\	-go	4cc#\	-go	1ryy	1ryy	1ryy	1ryy	1ryy
.	.	.	.	4r	.	4r	.	4r	.	4r	.	.	.	.	.	.
.	.	.	.	2r	.	2r	.	2r	.	2r	.	.	.	.	.	.
!	!	!	!	!LO:LB:g=original	!	!LO:LB:g=original	!	!	!	!	!	!	!	!	!	!
=21	=21	=21	=21	=21	=21	=21	=21	=21	=21	=21	=21	=21	=21	=21	=21	=21
1ryy	1ryy	1ryy	1ryy	4.D\	o	4.d\	o	4.f#\	o	4.a\	o	1ryy	1ryy	1ryy	1ryy	1ryy
.	.	.	.	8D\	cle-	8d\	cle-	8f#\	cle-	8a\	cle-	.	.	.	.	.
.	.	.	.	4D\	-mens	4d\	-mens	4f#\	-mens	4a\	-mens	.	.	.	.	.
.	.	.	.	4D\	o	4d\	o	4f#\	o	4a\	o	.	.	.	.	.
=22	=22	=22	=22	=22	=22	=22	=22	=22	=22	=22	=22	=22	=22	=22	=22	=22
1ryy	1ryy	1ryy	1ryy	2AA/	pi-	2c#\	pi-	2e\	pi-	2b\	pi-	1ryy	1ryy	1ryy	1ryy	1ryy
.	.	.	.	2D\	-a	2d\	-a	2f#\	-a	2a\	-a	.	.	.	.	.
=23	=23	=23	=23	=23	=23	=23	=23	=23	=23	=23	=23	=23	=23	=23	=23	=23
1ryy	1ryy	1ryy	1ryy	4.C#/	o	4.e\	o	4.g\	o	4.a\	o	1ryy	1ryy	1ryy	1ryy	1ryy
.	.	.	.	8C#/	dul-	8e\	dul-	8g\	dul-	8a\	dul-	.	.	.	.	.
.	.	.	.	2D\	-cis	2d\	-cis	2f#\	-cis	2a\	-cis	.	.	.	.	.
!	!	!	!	!	!	!	!	!	!	!LO:LB:g=original	!	!	!	!	!	!
=24	=24	=24	=24	=24	=24	=24	=24	=24	=24	=24	=24	=24	=24	=24	=24	=24
1ryy	1ryy	1ryy	1ryy	2F#\	vir-	2f#\	vir-	2a\	vir-	2a\	vir-	1ryy	1ryy	1ryy	1ryy	1ryy
.	.	.	.	2E\	-go	2e\	-go	2g\	-go	2a\	-go	.	.	.	.	.
=25	=25	=25	=25	=25	=25	=25	=25	=25	=25	=25	=25	=25	=25	=25	=25	=25
1ryy	1ryy	1ryy	1ryy	2D\	Ma-	2d\	Ma-	2f#\	Ma-	2a\	Ma-	1ryy	1ryy	1ryy	1ryy	1ryy
.	.	.	.	2AA/	.	2c#\	.	2e\	.	2a\	.	.	.	.	.	.
=26	=26	=26	=26	=26	=26	=26	=26	=26	=26	=26	=26	=26	=26	=26	=26	=26
!	!	!	!	!	!	!	!	!LO:N:vis=1.	!	!	!	!	!	!	!	!
1ryy	1ryy	1ryy	1ryy	1D	-ri-	1d	-ri-	1f#	-ri-	1a	-ri-	1ryy	1ryy	1ryy	1ryy	1ryy
=27	=27	=27	=27	=27	=27	=27	=27	=27	=27	=27	=27	=27	=27	=27	=27	=27
1ryy	1ryy	1ryy	1ryy	2A\	-a	2c#\	-a.	2e\	-a	2a\	-a	1ryy	1ryy	1ryy	1ryy	1ryy
.	.	.	.	2r	.	2r	.	2r	.	2r	.	.	.	.	.	.
!	!	!	!	!	!	!	!	!LO:LB:g=original	!	!	!	!	!	!	!	!
=28	=28	=28	=28	=28	=28	=28	=28	=28	=28	=28	=28	=28	=28	=28	=28	=28
1ryy	1ryy	1ryy	1ryy	4AA/	o	4c#\	o	4e\	o	4a\	o	1ryy	1ryy	1ryy	1ryy	1ryy
.	.	.	.	8AA/L	.	8c#\L	.	8e\	.	8a\	.	.	.	.	.	.
.	.	.	.	8AA/J	.	8c#\J	.	8e\	.	8a\	.	.	.	.	.	.
!	!	!	!	!	!	!LO:LB:g=original	!	!	!	!	!	!	!	!	!	!
.	.	.	.	4D\	cle-	4d\	cle-	4f#\	cle-	4a\	cle-	.	.	.	.	.
.	.	.	.	4D\	-mens	4d\	-mens	4f#\	-mens	4a\	-mens	.	.	.	.	.
!	!	!	!	!LO:LB:g=original	!	!	!	!	!	!	!	!	!	!	!	!
=29	=29	=29	=29	=29	=29	=29	=29	=29	=29	=29	=29	=29	=29	=29	=29	=29
1ryy	1ryy	1ryy	1ryy	4C#/	o	4e\	o	4g\	o	4a\	o	1ryy	1ryy	1ryy	1ryy	1ryy
.	.	.	.	8C#/L	.	8e\L	.	8g\	.	8a\	.	.	.	.	.	.
.	.	.	.	8C#/J	.	8e\J	.	8g\	.	8a\	.	.	.	.	.	.
.	.	.	.	4D/	pi-	4d\	pi-	4f#\	pi-	4a\	pi-	.	.	.	.	.
.	.	.	.	4D/	-a	4d\	-a	4f#\	-a	4a\	-a	.	.	.	.	.
=30	=30	=30	=30	=30	=30	=30	=30	=30	=30	=30	=30	=30	=30	=30	=30	=30
1ryy	1ryy	1ryy	1ryy	2A\	o	2c#\	o	2e\	o	2a\	o	1ryy	1ryy	1ryy	1ryy	1ryy
.	.	.	.	4F#\	dul-	4d\	dul-	4f#\	dul-	4a\	dul-	.	.	.	.	.
.	.	.	.	4F#\	-cis	4d\	-cis	4f#\	-cis	4a\	-cis	.	.	.	.	.
!	!	!	!	!	!	!	!	!	!	!LO:LB:g=original	!	!	!	!	!	!
=31	=31	=31	=31	=31	=31	=31	=31	=31	=31	=31	=31	=31	=31	=31	=31	=31
1ryy	1ryy	1ryy	1ryy	4C#/	vir-	4e\	vir-	4g\	vir-	4a\	vir-	1ryy	1ryy	1ryy	1ryy	1ryy
.	.	.	.	4D/	.	4d\	.	4f#\	.	4a\	.	.	.	.	.	.
.	.	.	.	4G\	.	4c#\	.	4e\	.	4a\	.	.	.	.	.	.
.	.	.	.	4F#\	.	4d\	.	4a\	.	4a\	.	.	.	.	.	.
=32	=32	=32	=32	=32	=32	=32	=32	=32	=32	=32	=32	=32	=32	=32	=32	=32
!	!	!	!	!	!	!	!	!LO:TX:b:t=a	!	!LO:TX:t=P:problem:takt zapisany repetycją	!	!	!	!	!	!
1ryy	1ryy	1ryy	1ryy	4C#/	.	4c#\	.	4g\	-[[go	4a\yy	.	1ryy	1ryy	1ryy	1ryy	1ryy
!	!	!	!	!	!	!	!	!LO:TX:a:t=p	!	!	!	!	!	!	!	!
!	!	!	!	!	!	!	!	!LO:TX:b:t=f	!	!	!	!	!	!	!	!
.	.	.	.	4D\	.	4d\	.	4f#\	.	4a\yy	.	.	.	.	.	.
!	!	!	!	!	!	!	!	!LO:TX:a:t=x	!	!	!	!	!	!	!	!
!	!	!	!	!	!	!	!	!LO:TX:b:t=e	!	!	!	!	!	!	!	!
.	.	.	.	4G\	.	4c#\	.	4e\	Ma-	4a\yy	.	.	.	.	.	.
!	!	!	!	!	!	!	!	!LO:TX:b:t=a	!	!	!	!	!	!	!	!
.	.	.	.	4F#\	.	4d\	.	4a\	-ri]]	4a\yy	.	.	.	.	.	.
=33	=33	=33	=33	=33	=33	=33	=33	=33	=33	=33	=33	=33	=33	=33	=33	=33
1ryy	1ryy	1ryy	1ryy	4E\	-go	4c#\	-go	4g\	go	4a\	-go	1ryy	1ryy	1ryy	1ryy	1ryy
.	.	.	.	4D\	.	4d\	.	4f#\	.	4a\	Ma-	.	.	.	.	.
.	.	.	.	4A\	Ma-	4c#\	Ma-	4e\	Ma-	4a\	.	.	.	.	.	.
.	.	.	.	4D\	-ri-	4d\	-ri-	4f#\	-ri-	4a\	-ri-	.	.	.	.	.
!	!	!	!	!	!	!LO:LB:g=original	!	!LO:LB:g=original	!	!	!	!	!	!	!	!
=34	=34	=34	=34	=34	=34	=34	=34	=34	=34	=34	=34	=34	=34	=34	=34	=34
1ryy	1ryy	1ryy	1ryy	4AA/	-a	4c#\	-a	4e\	-a	4a\	-a	1ryy	1ryy	1ryy	1ryy	1ryy
.	.	.	.	4r	.	4r	.	4r	.	4r	.	.	.	.	.	.
.	.	.	.	2r	.	2r	.	2r	.	2r	.	.	.	.	.	.
=35	=35	=35	=35	=35	=35	=35	=35	=35	=35	=35	=35	=35	=35	=35	=35	=35
1ryy	1ryy	1ryy	1ryy	8D\	o	8d\	o	8a\	o	8ff#\	o	1ryy	1ryy	1ryy	1ryy	1ryy
.	.	.	.	8r	.	8r	.	8r	.	8r	.	.	.	.	.	.
.	.	.	.	8G\	cle-	8d\	cle-	8b\	cle-	8gg\	cle-	.	.	.	.	.
.	.	.	.	8r	.	8r	.	8r	.	8r	.	.	.	.	.	.
.	.	.	.	8D\	-mens	8d\	-mens	8a\	-mens	8ff#\	-mens	.	.	.	.	.
.	.	.	.	8r	.	8r	.	8r	.	8r	.	.	.	.	.	.
.	.	.	.	8G\	o	8d\	o	8b\	o	8gg\	o	.	.	.	.	.
.	.	.	.	8r	.	8r	.	8r	.	8r	.	.	.	.	.	.
!	!	!	!	!LO:LB:g=original	!	!	!	!	!	!	!	!	!	!	!	!
=36	=36	=36	=36	=36	=36	=36	=36	=36	=36	=36	=36	=36	=36	=36	=36	=36
!	!	!	!	!LO:TX:t=P:problem:mixed beam	!	!	!	!	!	!	!	!	!	!	!	!
1ryy	1ryy	1ryy	1ryy	8F#\L	pi-	4A\	pi-	8a\L	pi-	8ff#\L	pi-	1ryy	1ryy	1ryy	1ryy	1ryy
.	.	.	.	8G\	.	.	.	8g\	.	8ee\J	.	.	.	.	.	.
.	.	.	.	8A\	.	4A\	.	8f#\	.	8dd\L	.	.	.	.	.	.
.	.	.	.	8AA/J	.	.	.	8e\J	.	8cc#\J	.	.	.	.	.	.
.	.	.	.	4D\	.	4A\	.	4f#\	.	4dd\	.	.	.	.	.	.
.	.	.	.	8C#/L	.	4c#\	.	4a\	.	4ee\	.	.	.	.	.	.
.	.	.	.	8AA/J	.	.	.	.	.	.	.	.	.	.	.	.
!	!	!	!	!	!	!	!	!	!	!LO:LB:g=original	!	!	!	!	!	!
=37	=37	=37	=37	=37	=37	=37	=37	=37	=37	=37	=37	=37	=37	=37	=37	=37
1ryy	1ryy	1ryy	1ryy	8D\L	.	4d\	.	4a\	.	4ff#\	.	1ryy	1ryy	1ryy	1ryy	1ryy
.	.	.	.	8F#\	.	.	.	.	.	.	.	.	.	.	.	.
.	.	.	.	8A\	.	4c#\	.	4a\	.	4ee\	.	.	.	.	.	.
.	.	.	.	8G\J	.	.	.	.	.	.	.	.	.	.	.	.
.	.	.	.	8F#\L	.	4A\	.	4f#\	.	4dd\	.	.	.	.	.	.
.	.	.	.	8D\J	.	.	.	.	.	.	.	.	.	.	.	.
.	.	.	.	8C#/L	.	4c#\	.	4a\	.	4ee\	.	.	.	.	.	.
.	.	.	.	8AA/J	.	.	.	.	.	.	.	.	.	.	.	.
=38	=38	=38	=38	=38	=38	=38	=38	=38	=38	=38	=38	=38	=38	=38	=38	=38
1ryy	1ryy	1ryy	1ryy	8D\L	.	4d\	.	4a\	.	4ff#\	.	1ryy	1ryy	1ryy	1ryy	1ryy
.	.	.	.	8F#\J	.	.	.	.	.	.	.	.	.	.	.	.
.	.	.	.	4A\	-a	4c#\	-a	4a\	-a	4ee\	-a	.	.	.	.	.
.	.	.	.	8r	.	8r	.	8r	.	8r	.	.	.	.	.	.
.	.	.	.	8AA/	o	8A\L	o	8e\	o	8cc#\	o	.	.	.	.	.
.	.	.	.	8D\	.	8A\J	.	8f#\	.	8dd\	.	.	.	.	.	.
.	.	.	.	8r	.	8r	.	8r	.	8r	.	.	.	.	.	.
!	!	!	!	!	!	!	!	!LO:LB:g=original	!	!	!	!	!	!	!	!
=39	=39	=39	=39	=39	=39	=39	=39	=39	=39	=39	=39	=39	=39	=39	=39	=39
1ryy	1ryy	1ryy	1ryy	8r	.	8r	.	8r	.	8r	.	1ryy	1ryy	1ryy	1ryy	1ryy
.	.	.	.	8AA/	dul-	8A\L	dul-	8e\	dul-	8cc#\	dul-	.	.	.	.	.
.	.	.	.	8D/	-cis	8A\J	-cis	8f#\	-cis	8dd\	-cis	.	.	.	.	.
.	.	.	.	8r	.	8r	.	8r	.	8r	.	.	.	.	.	.
.	.	.	.	8r	.	8r	.	8r	.	8r	.	.	.	.	.	.
.	.	.	.	8AA/	vir-	8A\	vir-	8e\	vir-	8cc#\	vir-	.	.	.	.	.
.	.	.	.	8D/	.	8r	.	8f#\	.	8dd\	.	.	.	.	.	.
.	.	.	.	8F#\	-go	8A\	-go	8a\	-go	8ff#\	-go	.	.	.	.	.
!	!	!	!	!	!	!LO:LB:g=original	!	!	!	!	!	!	!	!	!	!
=40	=40	=40	=40	=40	=40	=40	=40	=40	=40	=40	=40	=40	=40	=40	=40	=40
1ryy	1ryy	1ryy	1ryy	8A\	Ma-	8B/L	Ma-	8b\	Ma-	8gg\	Ma-	1ryy	1ryy	1ryy	1ryy	1ryy
.	.	.	.	8G\	.	8B/J	.	8b\	.	8ee\	.	.	.	.	.	.
.	.	.	.	8G\	.	8A/L	.	8a\	.	8ff#\	.	.	.	.	.	.
.	.	.	.	8F#\	.	8A/J	.	8a\	.	8dd\	.	.	.	.	.	.
.	.	.	.	8F#\	.	4G/	.	4g\	.	8ee\	.	.	.	.	.	.
.	.	.	.	8E\	.	.	.	.	.	8cc#\	.	.	.	.	.	.
.	.	.	.	8E\	.	8F#/L	.	4f#\	.	4dd\	.	.	.	.	.	.
.	.	.	.	8D\	.	8A/J	.	.	.	.	.	.	.	.	.	.
!	!	!	!	!LO:LB:g=original	!	!	!	!	!	!LO:LB:g=original	!	!	!	!	!	!
=41	=41	=41	=41	=41	=41	=41	=41	=41	=41	=41	=41	=41	=41	=41	=41	=41
1ryy	1ryy	1ryy	1ryy	8G\L	.	4A\	.	4g\	.	8ee\L	.	1ryy	1ryy	1ryy	1ryy	1ryy
.	.	.	.	8A\	.	.	.	.	.	8cc#\	.	.	.	.	.	.
.	.	.	.	8D\	.	4A\	.	8f#\L	.	8dd\	.	.	.	.	.	.
.	.	.	.	8A\J	.	.	.	8a\J	.	8ff#\J	.	.	.	.	.	.
.	.	.	.	8A\L	.	4B\	.	4g\	.	8gg\L	.	.	.	.	.	.
.	.	.	.	8G\	.	.	.	.	.	8ee\	.	.	.	.	.	.
.	.	.	.	8G\	.	4A\	.	4e\	-ri-	8ff#\	.	.	.	.	.	.
.	.	.	.	8F#\J	.	.	.	.	.	8dd\J	.	.	.	.	.	.
=42	=42	=42	=42	=42	=42	=42	=42	=42	=42	=42	=42	=42	=42	=42	=42	=42
!	!	!	!	!	!	!	!	!LO:TX:t=P:problem:takt zapisany repetycją	!	!	!	!	!	!	!	!
1ryy	1ryy	1ryy	1ryy	8F#\L	.	4G\	.	4g\yy	.	8ee\L	.	1ryy	1ryy	1ryy	1ryy	1ryy
.	.	.	.	8E\	.	.	.	.	.	8cc#\J	.	.	.	.	.	.
.	.	.	.	8E\	.	8F#\L	.	8f#\Lyy	.	8dd\L	.	.	.	.	.	.
.	.	.	.	8D\J	.	8A\J	.	8a\Jyy	.	8ff#\J	.	.	.	.	.	.
.	.	.	.	4G\	-ri-	2A\	-ri-	4g\yy	.	4ee\	.	.	.	.	.	.
.	.	.	.	4A\	.	.	.	4e\yy	-ri-	4cc#\	-ri-	.	.	.	.	.
=43	=43	=43	=43	=43	=43	=43	=43	=43	=43	=43	=43	=43	=43	=43	=43	=43
1ryy	1ryy	1ryy	1ryy	4D\	-a	4A\	-a	4f#\	-a.	4dd\	-a	1ryy	1ryy	1ryy	1ryy	1ryy
.	.	.	.	8r	.	8r	.	8r	.	8r	.	.	.	.	.	.
.	.	.	.	8A\	vir-	8A\	vir-	8e\	vir-	8cc#\	vir-	.	.	.	.	.
.	.	.	.	4D\	-go	4A\	-go	4f#\	-go	4dd\	-go	.	.	.	.	.
.	.	.	.	8r	.	8r	.	8r	.	8r	.	.	.	.	.	.
.	.	.	.	8AA/	Ma-	8A\	Ma-	8e\	Ma-	8cc#\	Ma-	.	.	.	.	.
=44	=44	=44	=44	=44	=44	=44	=44	=44	=44	=44	=44	=44	=44	=44	=44	=44
1ryy	1ryy	1ryy	1ryy	4D\	-ri-	4A/	-ri-	4f#\	-ri-	4dd\	-ri-	1ryy	1ryy	1ryy	1ryy	1ryy
.	.	.	.	4D\	-a	4A/	-a.	4f#\	-a	4dd\	-a .	.	.	.	.	.
.	.	.	.	2r	.	2r	.	2r	.	2r	.	.	.	.	.	.
=45	=45	=45	=45	=45	=45	=45	=45	=45	=45	=45	=45	=45	=45	=45	=45	=45
!	!	!	!	!	!	!	!	!LO:TX:a:t=5	!	!	!	!	!	!	!	!
1ryy	1ryy	1ryy	1ryy	00r	.	00r	.	00r	.	00r	.	1ryy	1ryy	1ryy	1ryy	1ryy
=46	=46	=46	=46	=46	=46	=46	=46	=46	=46	=46	=46	=46	=46	=46	=46	=46
1ryy	1ryy	1ryy	1ryy	.	.	.	.	.	.	.	.	1ryy	1ryy	1ryy	1ryy	1ryy
=47	=47	=47	=47	=47	=47	=47	=47	=47	=47	=47	=47	=47	=47	=47	=47	=47
1ryy	1ryy	1ryy	1ryy	.	.	.	.	.	.	.	.	1ryy	1ryy	1ryy	1ryy	1ryy
=48	=48	=48	=48	=48	=48	=48	=48	=48	=48	=48	=48	=48	=48	=48	=48	=48
1ryy	1ryy	1ryy	1ryy	.	.	.	.	.	.	.	.	1ryy	1ryy	1ryy	1ryy	1ryy
=49	=49	=49	=49	=49	=49	=49	=49	=49	=49	=49	=49	=49	=49	=49	=49	=49
!	!	!	!	!	!	!LO:TX:t=P:problem:brak taktu	!	!	!	!LO:TX:t=P:problem:brak taktu	!	!	!	!	!	!
1ryy	1ryy	1ryy	1ryy	1r	.	1ryy	.	1r	.	1ryy	.	1ryy	1ryy	1ryy	1ryy	1ryy
==	==	==	==	==	==	==	==	==	==	==	==	==	==	==	==	==
*-	*-	*-	*-	*-	*-	*-	*-	*-	*-	*-	*-	*-	*-	*-	*-	*-
!!!system-decoration: [(s1,s2)][(s3,s4)][(s5)][(s6,s7,s8,s9)][(s10,s11,s12)]s13
!!!ENC: Andrzej Borzym
!!!END: 2020-11-09
!!!ENC: Marta Lawrence
!!!END: 2022-04-19
!!!YEC: Copyright 2022 Narodowy Instytut Fryderyka Chopina (https://polishscores.org)
!!!YEM: License CC-BY-4.0 (https://creativecommons.org/licenses/by/4.0)
